!! 00013] TT[TB
!! Zh. Ch. 1-3166, 590615)   , J 3484)
!!!OTL: Mai cai  vgl. Kopie)
!!!ARE: Asia, China, Shanxi
!! Ethnic Group: Han
!! MM, !
!!!SCT: C0643
!!!YEM: Copyright 1995, estate of Helmut Schaffrath.
**kern
*ICvox
*Ivox
*M2/4
*k[f#c#g#]
*A:
{8bb
8ccc#
16bb
16ccc#
8bb
=1
8bb
8ccc#
16bb
8.bb
=2
8ccc#
16bb
16aa
8ff#
8aa
=3
2bb}
=4
{8.bb
16eee
8bb
8bb
=5
16bb
16aa
8ff#
4ee
=6
8.ee
16ff#
8aa
8bb
=7
16bb
16aa
8ff#
[4aa
=8
2aa]}
=9
{16cc#
8cc#
16b
4a
=10
8bb
8gg#
8ff#
8ee
=11
8.a
16b
8ee
16ff#
16ee
=12
8.cc#
16b
4a}
==
!!!AGN: Xiaodiao. Jiaomai
!! DOUBLETTE VON CUT 4
!!    Kein Grundton angegeben. Doppelt in C0641
!!!ONB: ESAC (Essen Associative Code) Database: CHINA
!!!AMT: simple duple
!!!AIN: vox
!!!EED: Helmut Schaffrath
!!!EEV: 1.0
*-
!!!ONB: Tied note syntax fixed by Craig Sapp, 2004/05/03/
